assets/images/icon-5.svg

<svg width="24" height="24" viewBox="0 0 24 24" fill="none" xmlns="http://www.w3.org/2000/svg">
<g clip-path="url(#clip0_15_55)">
<path d="M22.6688 21.5484H2.49844C1.12031 21.5484 0 20.4328 0 19.05V5.49844C0 4.12031 1.12031 3 2.49844 3H21.5016C22.8797 3 24 4.12031 24 5.49844V15.9422C24 16.3125 23.7 16.6078 23.3344 16.6078C22.9687 16.6078 22.6688 16.3078 22.6688 15.9422V5.49844C22.6688 4.85625 22.1484 4.33594 21.5062 4.33594H2.49844C1.85625 4.33594 1.33594 4.85625 1.33594 5.49844V19.0547C1.33594 19.6969 1.85625 20.2172 2.49844 20.2172H22.6688C23.0391 20.2266 23.3297 20.5313 23.3156 20.9016C23.3062 21.2531 23.0203 21.5391 22.6688 21.5484V21.5484Z" fill="#36496D"/>
<path d="M23.3343 5.49846L11.9999 14.0813L0.665527 5.49846C0.665527 4.48596 1.48584 3.66565 2.49834 3.66565H21.5015C22.514 3.66565 23.3343 4.48596 23.3343 5.49846Z" fill="#E3A6B6"/>
<path d="M12 14.7469C11.8547 14.7469 11.7141 14.7 11.5969 14.6109L0.2625 6.02812C0.0984375 5.90156 0 5.70469 0 5.49844C0 4.12031 1.12031 3 2.49844 3H21.5016C22.8797 3 24 4.12031 24 5.49844C24 5.70469 23.9016 5.90156 23.7375 6.02812L12.4031 14.6109C12.2859 14.7 12.1453 14.7469 12 14.7469ZM1.37344 5.19375L12 13.2469L22.6266 5.19375C22.4906 4.68281 22.0266 4.33125 21.5016 4.33125H2.49844C1.96875 4.33594 1.50937 4.6875 1.37344 5.19375V5.19375ZM22.6641 21.5391C22.5188 21.5391 22.3781 21.4922 22.2609 21.4031L17.5922 17.8688C17.2969 17.6484 17.2406 17.2266 17.4656 16.9359C17.6859 16.6406 18.1078 16.5844 18.3984 16.8094L23.0672 20.3438C23.3625 20.5641 23.4187 20.9859 23.1984 21.2766C23.0719 21.4453 22.875 21.5438 22.6641 21.5391V21.5391ZM1.61719 21.3234C1.24687 21.3234 0.951562 21.0234 0.951562 20.6578C0.951562 20.4469 1.05 20.25 1.21406 20.1234L5.59688 16.8047C5.89219 16.5844 6.30938 16.6406 6.52969 16.9313C6.75 17.2266 6.69375 17.6438 6.40313 17.8641L2.02031 21.1875C1.90312 21.2766 1.7625 21.3234 1.61719 21.3234Z" fill="#36496D"/>
</g>
<defs>
<clipPath id="clip0_15_55">
<rect width="24" height="18.5484" fill="white" transform="translate(0 3)"/>
</clipPath>
</defs>
</svg>

<?xml version="1.0" encoding="utf-8"?>
<!-- Generator: Adobe Illustrator 27.5.0, SVG Export Plug-In . SVG Version: 6.00 Build 0)  -->
<svg version="1.1" id="Layer_1" xmlns="http://www.w3.org/2000/svg" xmlns:xlink="http://www.w3.org/1999/xlink" x="0px" y="0px"
	 viewBox="0 0 24 24" style="enable-background:new 0 0 24 24;" xml:space="preserve">
<style type="text/css">
	.st0{clip-path:url(#SVGID_00000164511022624726759330000012933360110749511594_);}
	.st1{fill:#36496D;}
	.st2{fill:#F5F7AD;}
</style>
<g>
	<defs>
		<rect id="SVGID_1_" y="3" width="24" height="18.5"/>
	</defs>
	<clipPath id="SVGID_00000158708199026620105040000005693048297443907992_">
		<use xlink:href="#SVGID_1_"  style="overflow:visible;"/>
	</clipPath>
	<g style="clip-path:url(#SVGID_00000158708199026620105040000005693048297443907992_);">
		<path class="st1" d="M22.7,21.5H2.5C1.1,21.5,0,20.4,0,19V5.5C0,4.1,1.1,3,2.5,3h19C22.9,3,24,4.1,24,5.5v10.4
			c0,0.4-0.3,0.7-0.7,0.7c-0.4,0-0.7-0.3-0.7-0.7V5.5c0-0.6-0.5-1.2-1.2-1.2h-19c-0.6,0-1.2,0.5-1.2,1.2v13.6c0,0.6,0.5,1.2,1.2,1.2
			h20.2c0.4,0,0.7,0.3,0.6,0.7C23.3,21.3,23,21.5,22.7,21.5L22.7,21.5z"/>
		<path class="st2" d="M23.3,5.5L12,14.1L0.7,5.5c0-1,0.8-1.8,1.8-1.8h19C22.5,3.7,23.3,4.5,23.3,5.5z"/>
		<path class="st1" d="M12,14.7c-0.1,0-0.3,0-0.4-0.1L0.3,6C0.1,5.9,0,5.7,0,5.5C0,4.1,1.1,3,2.5,3h19C22.9,3,24,4.1,24,5.5
			c0,0.2-0.1,0.4-0.3,0.5l-11.3,8.6C12.3,14.7,12.1,14.7,12,14.7z M1.4,5.2L12,13.2l10.6-8.1c-0.1-0.5-0.6-0.9-1.1-0.9h-19
			C2,4.3,1.5,4.7,1.4,5.2L1.4,5.2z M22.7,21.5c-0.1,0-0.3,0-0.4-0.1l-4.7-3.5c-0.3-0.2-0.4-0.6-0.1-0.9c0.2-0.3,0.6-0.4,0.9-0.1
			l4.7,3.5c0.3,0.2,0.4,0.6,0.1,0.9C23.1,21.4,22.9,21.5,22.7,21.5L22.7,21.5z M1.6,21.3C1.2,21.3,1,21,1,20.7
			c0-0.2,0.1-0.4,0.3-0.5l4.4-3.3c0.3-0.2,0.7-0.2,0.9,0.1c0.2,0.3,0.2,0.7-0.1,0.9L2,21.2C1.9,21.3,1.8,21.3,1.6,21.3z"/>
	</g>
</g>
</svg>
